images_breeze_svg/cmd/sc_objectforwardone.svg

<svg viewBox="0 0 16 16" xmlns="http://www.w3.org/2000/svg">
/&amp;gt;<path d="m14 2v1h-7v-1zm0 4v1h-12v-1zm-9.5 2 .1875.21875 2.3125 2.5-.65625.6875-1.34375-1.4375v4.03125h-.0625-.875-.0625v-4.03125l-1.34375 1.4375-.65625-.6875 2.3125-2.5zm9.5 2v1h-5v-1zm0 3v1h-6v-1z" fill="#4d4d4d"/></svg>

<?xml version="1.0" encoding="UTF-8" standalone="no"?>
<svg
   xmlns:dc="http://purl.org/dc/elements/1.1/"
   xmlns:cc="http://creativecommons.org/ns#"
   xmlns:rdf="http://www.w3.org/1999/02/22-rdf-syntax-ns#"
   xmlns:svg="http://www.w3.org/2000/svg"
   xmlns="http://www.w3.org/2000/svg"
   xmlns:sodipodi="http://sodipodi.sourceforge.net/DTD/sodipodi-0.dtd"
   xmlns:inkscape="http://www.inkscape.org/namespaces/inkscape"
   viewBox="0 0 16 16"
   version="1.1"
   id="svg4"
   sodipodi:docname="sc_objectforwardone.svg"
   inkscape:version="0.92.4 (unknown)"
   inkscape:export-filename="/home/rizmut/Dokumen/Rizmut/Github/libreoffice-style-breeze/images_breeze/cmd/sc_objectforwardone.png"
   inkscape:export-xdpi="96"
   inkscape:export-ydpi="96"><metadata
   id="metadata10">
  <rdf:RDF>
    <cc:Work
       rdf:about="">
      <dc:format>image/svg+xml</dc:format>
      <dc:type
         rdf:resource="http://purl.org/dc/dcmitype/StillImage" />
    </cc:Work>
  </rdf:RDF>
</metadata>
<defs
   id="defs8" />
<sodipodi:namedview
   pagecolor="#ffffff"
   bordercolor="#666666"
   borderopacity="1"
   objecttolerance="10"
   gridtolerance="10"
   guidetolerance="10"
   inkscape:pageopacity="0"
   inkscape:pageshadow="2"
   inkscape:window-width="1360"
   inkscape:window-height="714"
   id="namedview6"
   showgrid="true"
   inkscape:zoom="20.85965"
   inkscape:cx="-0.0031856"
   inkscape:cy="8.4170005"
   inkscape:window-x="0"
   inkscape:window-y="28"
   inkscape:window-maximized="1"
   inkscape:current-layer="svg4">
  <inkscape:grid
     type="xygrid"
     id="grid817" />
</sodipodi:namedview>
/&gt;<path
   d="M 14,2 V 3 H 7 V 2 Z m 0,4 V 7 H 2 V 6 Z M 4.5,8 4.6875,8.21875 7,10.71875 6.34375,11.40625 5,9.96875 V 14 H 4.9375 4.0625 4 V 9.96875 L 2.65625,11.40625 2,10.71875 l 2.3125,-2.5 z m 9.5,2 v 1 H 9 v -1 z m 0,3 v 1 H 8 v -1 z"
   id="path2"
   inkscape:connector-curvature="0"
   style="fill:#4d4d4d" />
</svg>
